src/facebook.svg

<svg viewBox="0 0 24 24" fill="none" xmlns="http://www.w3.org/2000/svg">
<path d="M12 1C5.92525 1 1 5.92525 1 12C1 18.0747 5.92525 23 12 23C18.0747 23 23 18.0747 23 12C23 5.92525 18.0747 1 12 1Z" fill="#1877F2"/>
<path d="M15.0413 12.9782L15.4041 10.733H13.1347V9.2767C13.1347 8.66233 13.4511 8.06311 14.4676 8.06311H15.5V6.1517C15.5 6.1517 14.5635 6 13.6685 6C11.7987 6 10.5776 7.07553 10.5776 9.02184V10.733H8.5V12.9782H10.5776V18.406C10.9947 18.4682 11.4215 18.5 11.8562 18.5C12.2909 18.5 12.7176 18.4682 13.1347 18.406V12.9782H15.0413Z" fill="white"/>
</svg>

<svg xmlns="http://www.w3.org/2000/svg" fill="none" viewBox="0 0 24 24">
  <rect width="22" height="22" x="1" y="1" fill="#1877F2" rx="6"/>
  <path fill="#fff" d="m15.041 12.978.363-2.245h-2.27V9.277c0-.615.317-1.214 1.334-1.214H15.5V6.152S14.563 6 13.668 6c-1.87 0-3.09 1.076-3.09 3.022v1.711H8.5v2.245h2.078v5.428a8.664 8.664 0 0 0 2.557 0v-5.428h1.906Z"/>
</svg>
